X: 493
T: Johnny's wedding
C:anon.
O:Ireland
B:Francis O'Neill: "The Dance Music of Ireland" (1907) no. 493
R:Reel
Z:Transcribed by Frank Nordberg - http://www.musicaviva.com
F:http://www.musicaviva.com/abc/tunes/ireland/oneill-1001/oneill-1001-049
3.abc
M:C
L:1/8
K:Gm
(GA)|BGdG BGGB|AFcF AFFA|[1 BGdG BGGB|AF (3D=E^F G2:|[2 GBAc Bdce|dg^fa
 g2||
|:(ga)|bgag fdd=e|fdcB AFFA|bgag fddc|dg^fa g2(ga)|bgag fdd=e|fdcB AF
FA|GBAc Bdce|dg^fa g2|]
W:
W:
W:  From Musica Viva - http://www.musicaviva.com
W:  the Internet center for free sheet music downloads.


